src/icons/main-pause.svg

<?xml version="1.0" encoding="UTF-8"?>
<svg width="14px" height="14px" viewBox="0 0 14 14" version="1.1" xmlns="http://www.w3.org/2000/svg" xmlns:xlink="http://www.w3.org/1999/xlink">
    <!-- Generator: Sketch 59 (86127) - https://sketch.com -->
    <title>HDL/Icon/Standard/pause</title>
    <desc>Created with Sketch.</desc>
    <g id="Colors" stroke="none" stroke-width="1" fill="none" fill-rule="evenodd">
        <g id="Main-Icons" transform="translate(-122.000000, -1393.000000)" fill="#4D5969">
            <g id="Pause" transform="translate(101.000000, 1375.000000)">
                <g id="HDL/Icon/Standard/pause" transform="translate(21.000000, 18.000000)">
                    <path d="M4,0 L1,0 C0.45,0 0,0.45 0,1 L0,13 C0,13.55 0.45,14 1,14 L4,14 C4.55,14 5,13.55 5,13 L5,1 C5,0.45 4.55,0 4,0 Z M13,0 L10,0 C9.45,0 9,0.45 9,1 L9,13 C9,13.55 9.45,14 10,14 L13,14 C13.55,14 14,13.55 14,13 L14,1 C14,0.45 13.55,0 13,0 Z" id="Shape"></path>
                </g>
            </g>
        </g>
    </g>
</svg>

<?xml version="1.0" encoding="utf-8"?>
<!-- Generator: Adobe Illustrator 20.1.0, SVG Export Plug-In . SVG Version: 6.00 Build 0)  -->
<svg version="1.1" id="Layer_1" xmlns="http://www.w3.org/2000/svg" xmlns:xlink="http://www.w3.org/1999/xlink" x="0px" y="0px"
	 viewBox="0 0 14 14" style="enable-background:new 0 0 14 14;" xml:space="preserve">
<style type="text/css">
	.st0{fill:#4D5969;}
</style>
<title>HDL/Icon/Standard/pause</title>
<desc>Created with Sketch.</desc>
<g id="Colors">
	<g id="Main-Icons" transform="translate(-122.000000, -1393.000000)">
		<g id="Pause" transform="translate(101.000000, 1375.000000)">
			<g id="HDL_x2F_Icon_x2F_Standard_x2F_pause" transform="translate(21.000000, 18.000000)">
				<path id="Shape" class="st0" d="M4,0H1C0.4,0,0,0.4,0,1v12c0,0.6,0.4,1,1,1h3c0.6,0,1-0.4,1-1V1C5,0.4,4.6,0,4,0z M13,0h-3
					C9.4,0,9,0.4,9,1v12c0,0.6,0.4,1,1,1h3c0.6,0,1-0.4,1-1V1C14,0.4,13.6,0,13,0z"/>
			</g>
		</g>
	</g>
</g>
</svg>
